src/img/invest.svg

<svg width="64" height="54" viewBox="0 0 64 54" fill="none" xmlns="http://www.w3.org/2000/svg">
<path d="M53.1876 0C48.2975 0 44.4337 3.94382 44.4337 8.85842C44.4337 13.773 48.3579 17.6562 53.1876 17.6562C58.0174 17.6562 62.0019 13.7123 62.0019 8.79775C62.0019 3.88314 58.0777 0 53.1876 0ZM53.1876 15.7146C49.3842 15.7146 46.3052 12.6202 46.3052 8.79775C46.3052 4.97528 49.4446 1.94157 53.1876 1.94157C56.991 1.94157 60.07 5.03595 60.07 8.85842C60.07 12.6809 56.991 15.7146 53.1876 15.7146Z" fill="url(#paint0_linear)"/>
<path d="M55.9648 10.1933C55.9044 10.0113 55.9044 9.88996 55.7837 9.70794C55.7233 9.58659 55.6629 9.40457 55.5422 9.28322C55.4214 9.16187 55.3611 9.04052 55.2403 8.91918C55.1196 8.79783 54.9988 8.67648 54.8177 8.61581C54.697 8.49446 54.5159 8.43378 54.3951 8.37311C54.214 8.31244 54.0933 8.19109 53.9121 8.13041C53.731 8.06974 53.5499 8.00907 53.4292 7.94839C53.3688 7.94839 53.248 7.88772 53.1877 7.82704C53.1273 7.76637 53.0066 7.76637 52.9462 7.7057C52.8858 7.64502 52.7651 7.64502 52.7047 7.58435C52.6443 7.52367 52.584 7.463 52.5236 7.40233C52.4632 7.34165 52.4028 7.28098 52.4028 7.15963C52.3425 7.09896 52.3425 6.97761 52.3425 6.91693C52.3425 6.79559 52.3425 6.73491 52.3425 6.61356C52.3425 6.55289 52.4028 6.43154 52.4028 6.37087C52.4632 6.31019 52.4632 6.18884 52.5236 6.12817C52.584 6.0675 52.6443 6.00682 52.7047 5.94615C52.7651 5.88547 52.8858 5.8248 53.0066 5.8248C53.1273 5.76413 53.1877 5.76412 53.3084 5.76412C53.3688 5.76412 53.4292 5.76412 53.4895 5.76412C53.5499 5.76412 53.6103 5.76412 53.6707 5.76412C53.7914 5.76412 53.8518 5.76413 53.9725 5.8248C54.0933 5.8248 54.214 5.88547 54.2744 5.88547C54.3347 5.88547 54.4555 5.94615 54.5159 5.94615C54.6366 5.94615 54.697 6.00682 54.7573 6.00682L55.0592 6.12817L55.1196 5.76412L55.2403 4.79334V4.55064L54.9988 4.48997C54.9385 4.48997 54.8177 4.4293 54.7573 4.4293C54.697 4.4293 54.6366 4.36862 54.5159 4.36862C54.4555 4.36862 54.3347 4.30795 54.214 4.30795C54.0933 4.30795 54.0329 4.24727 53.9121 4.24727H53.8518V3.09447H52.4028V4.30795H52.3425C52.1614 4.36862 51.9802 4.4293 51.7991 4.55064C51.618 4.61132 51.4973 4.73267 51.3765 4.85401C51.2558 4.97536 51.135 5.09671 51.0143 5.27873C50.8935 5.40008 50.8332 5.5821 50.7728 5.76412C50.7124 5.94615 50.6521 6.12817 50.5917 6.31019C50.5313 6.49221 50.5313 6.73491 50.5313 6.91693C50.5313 7.09896 50.5313 7.2203 50.5917 7.40233C50.6521 7.58435 50.6521 7.7057 50.7728 7.88772C50.8332 8.00907 50.9539 8.19109 51.0143 8.31244C51.135 8.43378 51.1954 8.55513 51.3161 8.67648C51.4369 8.79783 51.5576 8.91918 51.7387 8.97985C51.8595 9.1012 52.0406 9.16187 52.1614 9.22255C52.3425 9.28322 52.5236 9.40457 52.6443 9.46524C52.8254 9.52592 53.0066 9.58659 53.1273 9.64727C53.1877 9.64727 53.3084 9.70794 53.3688 9.76861C53.4292 9.82929 53.5499 9.82929 53.6103 9.88996C53.6707 9.95064 53.731 10.0113 53.7914 10.0113C53.8518 10.072 53.9121 10.1327 53.9725 10.1933C54.0329 10.254 54.0329 10.3147 54.0933 10.436C54.0933 10.4967 54.1536 10.6181 54.1536 10.7394C54.1536 10.8607 54.1536 10.9214 54.1536 11.0428C54.1536 11.1034 54.0933 11.2248 54.0329 11.2855C53.9725 11.3461 53.9121 11.4068 53.8518 11.4675C53.7914 11.5282 53.731 11.5888 53.6103 11.6495C53.5499 11.7102 53.4292 11.7102 53.3688 11.7709C53.3084 11.7709 53.1877 11.8315 53.0669 11.8315C53.0066 11.8315 52.9462 11.8315 52.8254 11.8315C52.7651 11.8315 52.6443 11.8315 52.584 11.8315C52.4632 11.8315 52.3425 11.8315 52.2821 11.8315C52.1614 11.8315 52.0406 11.7709 51.9802 11.7709C51.8595 11.7709 51.7388 11.7102 51.618 11.6495C51.4973 11.5888 51.3765 11.5888 51.2558 11.5282C51.1954 11.5282 51.135 11.4675 51.0747 11.4675C51.0143 11.4675 50.9539 11.4068 50.8935 11.4068L50.5313 11.2248L50.4709 11.6495L50.3502 12.7416V12.9237L50.5313 12.9843C50.7728 12.9237 50.8935 12.9843 51.0747 13.045C51.1954 13.1057 51.3765 13.1664 51.4973 13.1664C51.618 13.227 51.7991 13.227 51.9802 13.2877C52.1614 13.3484 52.2821 13.3484 52.4632 13.3484H52.584V14.5619H54.0329V13.2877H54.0933C54.2744 13.227 54.4555 13.1664 54.6366 13.045C54.8177 12.9843 54.9385 12.863 55.1196 12.7416C55.2403 12.6203 55.3611 12.4989 55.4818 12.3169C55.6026 12.1956 55.6629 12.0136 55.7837 11.8315C55.844 11.6495 55.9044 11.4675 55.9648 11.2855C56.0252 11.1034 56.0252 10.9214 56.0252 10.6787C56.0252 10.4967 56.0252 10.3754 55.9648 10.1933Z" fill="url(#paint1_linear)"/>
<path d="M48.9616 18.809C48.6598 18.3843 47.9957 18.3236 47.5731 18.627L37.7928 26.454L25.1751 21.1753C24.8732 21.054 24.511 21.1147 24.2695 21.2967L10.7462 31.0046C10.3236 31.3079 10.2029 31.9147 10.5047 32.3394C10.6858 32.6427 10.9877 32.7641 11.2895 32.7641C11.4707 32.7641 11.6518 32.7034 11.8329 32.5821L24.9336 23.1776L37.6117 28.4562C37.9136 28.5776 38.3362 28.5169 38.5776 28.3349L48.7805 20.2045C49.2031 19.9012 49.2635 19.2338 48.9616 18.809Z" fill="url(#paint2_linear)"/>
<path d="M63.0887 52.0584H58.6211V23.9663C58.6211 23.4202 58.1985 22.9955 57.6552 22.9955H48.7805C48.2372 22.9955 47.8146 23.4202 47.8146 23.9663V52.0584H44.5545V33.6742C44.5545 33.1281 44.1319 32.7034 43.5885 32.7034H34.6535C34.1101 32.7034 33.6875 33.1281 33.6875 33.6742V52.0584H30.4275V32.218C30.4275 31.6719 30.0049 31.2472 29.4615 31.2472H20.5868C20.0435 31.2472 19.6209 31.6719 19.6209 32.218V52.0584H16.3608V37.9214C16.3608 37.3753 15.9382 36.9506 15.3948 36.9506H6.4598C5.91645 36.9506 5.49385 37.3753 5.49385 37.9214V52.0584H0.965951C0.422603 52.0584 0 52.4831 0 53.0292C0 53.5753 0.422603 54 0.965951 54H63.0283C63.5716 54 63.9942 53.5753 63.9942 53.0292C64.0546 52.4831 63.632 52.0584 63.0887 52.0584ZM14.3685 52.0584H7.42575V38.8921H14.3685V52.0584ZM28.4956 52.0584H21.5528V33.1888H28.4956V52.0584ZM42.5622 52.0584H35.6194V34.645H42.5622V52.0584ZM56.6892 52.0584H49.7465V24.9371H56.6892V52.0584Z" fill="url(#paint3_linear)"/>
<defs>
<linearGradient id="paint0_linear" x1="32" y1="0" x2="32" y2="54" gradientUnits="userSpaceOnUse">
<stop stop-color="#36B1FF"/>
<stop offset="1" stop-color="#8843FB"/>
</linearGradient>
<linearGradient id="paint1_linear" x1="32" y1="0" x2="32" y2="54" gradientUnits="userSpaceOnUse">
<stop stop-color="#36B1FF"/>
<stop offset="1" stop-color="#8843FB"/>
</linearGradient>
<linearGradient id="paint2_linear" x1="32" y1="0" x2="32" y2="54" gradientUnits="userSpaceOnUse">
<stop stop-color="#36B1FF"/>
<stop offset="1" stop-color="#8843FB"/>
</linearGradient>
<linearGradient id="paint3_linear" x1="32" y1="0" x2="32" y2="54" gradientUnits="userSpaceOnUse">
<stop stop-color="#36B1FF"/>
<stop offset="1" stop-color="#8843FB"/>
</linearGradient>
</defs>
</svg>

<svg width="64" height="54" fill="none" xmlns="http://www.w3.org/2000/svg"><path d="M53.188 0c-4.89 0-8.754 3.944-8.754 8.858 0 4.915 3.924 8.798 8.754 8.798s8.814-3.944 8.814-8.858C62.002 3.883 58.078 0 53.188 0Zm0 15.715c-3.804 0-6.883-3.095-6.883-6.917 0-3.823 3.14-6.856 6.883-6.856 3.803 0 6.882 3.094 6.882 6.916 0 3.823-3.079 6.857-6.882 6.857Z" fill="url(#a)"/><path d="M55.965 10.193c-.06-.182-.06-.303-.181-.485-.06-.121-.121-.303-.242-.425-.12-.121-.18-.242-.302-.364-.12-.121-.241-.243-.422-.303-.121-.122-.302-.182-.423-.243-.181-.06-.302-.182-.483-.243-.181-.06-.362-.12-.483-.182a.456.456 0 0 1-.241-.121c-.06-.06-.181-.06-.242-.121-.06-.061-.18-.061-.241-.122l-.181-.182c-.06-.06-.121-.121-.121-.242-.06-.061-.06-.182-.06-.243v-.303c0-.061.06-.182.06-.243.06-.06.06-.182.12-.243l.182-.182a.46.46 0 0 1 .302-.121c.12-.06.18-.06.301-.06h.363c.12 0 .18 0 .301.06.121 0 .242.06.302.06s.181.061.242.061c.12 0 .181.06.241.06l.302.122.06-.364.121-.97V4.55L55 4.49c-.06 0-.181-.06-.242-.06-.06 0-.12-.061-.241-.061-.06 0-.181-.061-.302-.061-.12 0-.181-.06-.302-.06h-.06V3.093h-1.45v1.214h-.06c-.18.06-.362.121-.543.243-.181.06-.302.182-.422.303a2.626 2.626 0 0 0-.363.425c-.12.121-.18.303-.241.485l-.181.546c-.06.182-.06.425-.06.607s0 .303.06.485.06.304.18.486c.061.121.182.303.242.424.121.122.181.243.302.364.12.122.242.243.423.304.12.121.302.182.422.243.181.06.363.182.483.242.181.06.363.122.483.182.06 0 .181.06.242.122.06.06.18.06.241.121.06.06.121.121.181.121l.181.182c.06.061.06.122.121.243 0 .06.06.182.06.303v.304a.46.46 0 0 1-.12.243l-.181.181a.835.835 0 0 1-.242.182c-.06.061-.18.061-.241.122-.06 0-.181.06-.302.06h-.786c-.12 0-.241-.06-.302-.06-.12 0-.241-.06-.362-.122-.12-.06-.242-.06-.362-.12-.06 0-.121-.062-.181-.062s-.121-.06-.181-.06l-.363-.182-.06.425-.12 1.092v.182l.18.06c.242-.06.363 0 .544.061.12.06.301.121.422.121.121.061.302.061.483.122.181.06.302.06.483.06h.121v1.214h1.449v-1.274h.06c.181-.061.362-.122.544-.243.18-.06.301-.182.483-.303.12-.122.241-.243.362-.425.12-.121.18-.303.302-.486l.18-.545c.061-.183.061-.365.061-.607 0-.182 0-.304-.06-.486Z" fill="url(#b)"/><path d="M48.962 18.809c-.302-.425-.966-.485-1.389-.182l-9.78 7.827-12.618-5.279a.96.96 0 0 0-.905.122l-13.524 9.708c-.422.303-.543.91-.241 1.334.18.304.483.425.784.425a.97.97 0 0 0 .544-.182l13.1-9.404 12.679 5.278c.302.122.724.06.966-.121l10.203-8.13c.422-.304.483-.971.18-1.396Z" fill="url(#c)"/><path d="M63.089 52.058H58.62V23.966a.956.956 0 0 0-.966-.97H48.78a.956.956 0 0 0-.966.97v28.092h-3.26V33.674a.956.956 0 0 0-.966-.97h-8.935a.956.956 0 0 0-.967.97v18.384h-3.26v-19.84a.956.956 0 0 0-.965-.97h-8.875a.956.956 0 0 0-.966.97v19.84h-3.26V37.921a.956.956 0 0 0-.966-.97H6.46a.956.956 0 0 0-.966.97v14.137H.966A.956.956 0 0 0 0 53.03c0 .546.423.971.966.971h62.062a.956.956 0 0 0 .966-.97c.06-.547-.362-.972-.905-.972Zm-48.72 0H7.425V38.892h6.942v13.166Zm14.127 0h-6.943v-18.87h6.943v18.87Zm14.066 0H35.62V34.645h6.943v17.413Zm14.127 0h-6.943v-27.12h6.943v27.12Z" fill="url(#d)"/><defs><linearGradient id="a" x1="32" y1="0" x2="32" y2="54" gradientUnits="userSpaceOnUse"><stop stop-color="#36B1FF"/><stop offset="1" stop-color="#8843FB"/></linearGradient><linearGradient id="b" x1="32" y1="0" x2="32" y2="54" gradientUnits="userSpaceOnUse"><stop stop-color="#36B1FF"/><stop offset="1" stop-color="#8843FB"/></linearGradient><linearGradient id="c" x1="32" y1="0" x2="32" y2="54" gradientUnits="userSpaceOnUse"><stop stop-color="#36B1FF"/><stop offset="1" stop-color="#8843FB"/></linearGradient><linearGradient id="d" x1="32" y1="0" x2="32" y2="54" gradientUnits="userSpaceOnUse"><stop stop-color="#36B1FF"/><stop offset="1" stop-color="#8843FB"/></linearGradient></defs></svg>
